svgs/thin/thumbs-up.svg

<svg xmlns="http://www.w3.org/2000/svg" viewBox="0 0 512 512"><!--! Font Awesome Pro 6.3.0 by @fontawesome - https://fontawesome.com License - https://fontawesome.com/license (Commercial License) Copyright 2023 Fonticons, Inc. --><path d="M96 191.1H32c-17.67 0-32 14.33-32 31.1v223.1c0 17.67 14.33 31.1 32 31.1h64c17.67 0 32-14.32 32-31.1V223.1C128 206.3 113.7 191.1 96 191.1zM112 448c0 8.822-7.178 16-16 16H32c-8.822 0-16-7.178-16-16V224c0-8.822 7.178-16 16-16h64c8.822 0 16 7.178 16 16V448zM512 229.5C512 199.1 487.9 176 458.2 176h-128.9C350.2 139.5 360 101.1 360 85.92C360 59.42 339.4 32 304.9 32c-67.61 0-32.66 76.37-108.1 136.8L163.2 193.6C161.1 195.1 159.1 197.6 159.1 200c0 5.952 5.424 7.995 8.012 7.995c1.655 0 3.323-.5134 4.755-1.579l33.7-24.98C285.8 117.1 253.2 48 304.8 48C329.3 48 344 67.28 344 85.92c0 12.06-9.047 49.66-30.66 85.64l-5.328 8c-.8922 1.334-1.341 2.876-1.341 4.425C306.7 188.6 310.5 192 314.7 192h143.5C479 192 496 208.8 496 229.5c0 19.5-15.47 35.84-35.23 37.19c-4.233 .3008-7.458 3.821-7.458 7.983c0 7.198 12.15 11.17 12.15 30.63c0 17.98-12.95 33.45-30.81 36.77c-2.821 .5098-6.547 3.135-6.547 7.861c0 5.129 6.812 9.568 6.812 23.58c0 16.16-10.53 30.41-26.19 35.45c-3.368 1.078-5.546 4.199-5.546 7.602c0 2.175 1.186 4.507 1.186 10.01c0 20.66-16.97 37.47-37.81 37.47h-56.03c-31.09 0-61.94-10.2-87.19-28.98l-50.91-33.69c-1.37-.9092-2.904-1.342-4.419-1.342c-4.407 0-8.003 3.585-8.003 8.001c0 2.598 1.259 5.146 3.578 6.685l50.55 33.44C241.8 468.7 276 480 310.5 480h56.03c29.67 0 53.81-23.98 53.81-53.47c0-1.641-.0781-3.281-.25-4.938c18.67-8.75 30.8-27.31 30.8-48.13c0-6.297-1.172-12.58-3.453-18.55c20.19-7.906 34-27.42 34-49.66c0-8.844-2.25-17.48-6.453-25.2C496.5 273 512 252.8 512 229.5z"/></svg>

<svg xmlns="http://www.w3.org/2000/svg" viewBox="0 0 512 512"><!-- Font Awesome Pro 6.0.0-alpha2 by @fontawesome - https://fontawesome.com License - https://fontawesome.com/license (Commercial License) --><path d="M96 192H32C14.326 192 0 206.328 0 224V448C0 465.674 14.326 480 32 480H96C113.674 480 128 465.674 128 448V224C128 206.328 113.674 192 96 192ZM112 448C112 456.822 104.822 464 96 464H32C23.178 464 16 456.822 16 448V224C16 215.178 23.178 208 32 208H96C104.822 208 112 215.178 112 224V448ZM512 229.469C512 199.984 487.859 176 458.188 176H329.281C350.219 139.547 360 101.078 360 85.922C360 59.422 339.344 32 304.781 32C237.169 32 272.194 108.373 196.703 168.766L163.234 193.578C161.119 195.143 159.999 197.559 159.999 200.006C159.999 205.958 165.422 208.001 168.011 208.001C169.665 208.001 171.334 207.488 172.766 206.422L206.469 181.438C285.805 117.987 253.192 48 304.781 48C329.328 48 344 67.281 344 85.922C344 97.984 334.953 135.578 313.344 171.562L308.016 179.562C307.123 180.896 306.675 182.438 306.675 183.987C306.675 188.63 310.467 192 314.672 192H458.188C479.031 192 496 208.812 496 229.469C496 248.969 480.531 265.312 460.766 266.656C456.533 266.957 453.308 270.477 453.308 274.64C453.308 281.838 465.453 285.813 465.453 305.266C465.453 323.25 452.5 338.719 434.641 342.031C431.82 342.541 428.094 345.166 428.094 349.893C428.094 355.022 434.906 359.461 434.906 373.469C434.906 389.625 424.375 403.875 408.719 408.922C405.35 410 403.173 413.121 403.173 416.524C403.173 418.699 404.359 421.031 404.359 426.531C404.359 447.188 387.391 464 366.547 464H310.516C279.422 464 248.578 453.797 223.328 435.016L172.422 401.328C171.052 400.419 169.517 399.987 168.003 399.987C163.596 399.987 160 403.571 160 407.987C160 410.585 161.26 413.133 163.578 414.672L214.125 448.109C241.766 468.672 276 480 310.516 480H366.547C396.219 480 420.359 456.016 420.359 426.531C420.359 424.891 420.281 423.25 420.109 421.594C438.781 412.844 450.906 394.281 450.906 373.469C450.906 367.172 449.734 360.891 447.453 354.922C467.641 347.016 481.453 327.5 481.453 305.266C481.453 296.422 479.203 287.781 475 280.063C496.547 273 512 252.828 512 229.469Z"/></svg>
